icon-themes/elementary_svg/cmd/sc_signature.svg

<svg viewBox="0 0 16 16" xmlns="http://www.w3.org/2000/svg" xmlns:xlink="http://www.w3.org/1999/xlink"><radialGradient id="a" cx="16.823883" cy="11.368058" fx="16.777113" fy="11.597148" gradientTransform="matrix(0 .80952381 -1.1390522 0 20.948813 -5.369334)" gradientUnits="userSpaceOnUse" r="10.5"><stop offset="0" stop-color="#f2e0c4"/><stop offset=".76470584" stop-color="#e5af5b"/><stop offset="1" stop-color="#af6900"/></radialGradient><linearGradient id="b" gradientTransform="matrix(.66666666 0 0 .46666666 -12.166666 1.466666)" gradientUnits="userSpaceOnUse" x1="24" x2="24" xlink:href="#c" y1="29" y2="14"/><linearGradient id="c"><stop offset="0" stop-color="#d88f22"/><stop offset="1" stop-color="#d88f22" stop-opacity="0"/></linearGradient><linearGradient id="d" gradientTransform="matrix(.66666666 0 0 .46666666 -3.166667 1.466666)" gradientUnits="userSpaceOnUse" x1="24" x2="24" xlink:href="#c" y1="29" y2="14"/><linearGradient id="e" gradientTransform="matrix(-.93357745 0 0 1 23.379997 -20)" gradientUnits="userSpaceOnUse" x1="8.642858" x2="23.299999" y1="27.5" y2="27.5"><stop offset="0" stop-color="#fff"/><stop offset="1" stop-color="#fff" stop-opacity="0"/></linearGradient>

     /&gt;
 <path d="m2.999999.99999996c2.2915074 0 9.999988.00089004 9.999988.00089004l.000012 13.99911s-6.6666668 0-10 0c0-4.666666 0-9.333334 0-14.00000004z" fill="#e9e9e9"/><path d="m2.4999611.49997396c2.5206756 0 11.0000629.000954 11.0000629.000954l.000013 14.99909804s-7.3333841 0-11.000076 0c0-5.000017 0-10.000035 0-15.00005204z" fill="none" stroke="#8c8c8c" stroke-linejoin="round" stroke-width=".999922"/><path d="m12.499999 14.5h-9.0000001v-13h9.0000001z" fill="none" stroke="#fff" stroke-linecap="round"/><g transform="matrix(.53330255 0 0 .53330255 8.533764 7.467159)"><path d="m4.4999998 6.4996391v-1.3753574c0-2.4782011 1.3702785-3.6555186 3.4872865-3.62457 2.1285247.030949 3.5133857 1.1172142 3.5133857 3.62457v1.3753574h-1.431082v-.7455829c0-.6297745.148159-2.6676754-2.0673917-2.6676754-2.1972832 0-2.0371829 2.0504603-2.0286629 2.6651649v.7480934z" fill="none" stroke="#8c8c8c" stroke-linecap="square"/><rect fill="url(#a)" height="8" rx=".523809" ry=".533333" width="11" x="2.5" y="7.5"/><rect fill="url(#b)" height="7" rx="1.6" ry=".5" width="1" x="3" y="8"/><rect fill="url(#d)" height="7" rx="1.6" ry=".5" width="1" x="12" y="8"/><g fill="none"><rect height="8" rx=".52381" ry=".533333" stroke="#de9d3c" width="11" x="2.5" y="7.5"/><path d="m3.5 9.5 9-.000379m-9 2.000379 9-.000379m-9 2.000379 9-.000379" stroke="url(#e)" stroke-linecap="square"/><path d="m5.2 6s-.5898303-3.5 2.8-3.5c3.38983 0 2.8 3.5 2.8 3.5" stroke="#fff" stroke-linecap="round"/></g></g></svg>

<?xml version="1.0" encoding="UTF-8" standalone="no"?>
<svg
   xmlns:dc="http://purl.org/dc/elements/1.1/"
   xmlns:cc="http://creativecommons.org/ns#"
   xmlns:rdf="http://www.w3.org/1999/02/22-rdf-syntax-ns#"
   xmlns:svg="http://www.w3.org/2000/svg"
   xmlns="http://www.w3.org/2000/svg"
   xmlns:xlink="http://www.w3.org/1999/xlink"
   xmlns:sodipodi="http://sodipodi.sourceforge.net/DTD/sodipodi-0.dtd"
   xmlns:inkscape="http://www.inkscape.org/namespaces/inkscape"
   id="svg3942"
   height="16"
   width="16"
   version="1.1"
   sodipodi:docname="sc_signature.svg"
   inkscape:export-filename="/home/rizmut/Dokumen/Rizmut/Github/libreoffice-style-elementary/images_elementary/cmd/sc_signature.png"
   inkscape:export-xdpi="96"
   inkscape:export-ydpi="96"
   inkscape:version="0.92.3 (unknown)">
  <sodipodi:namedview
     pagecolor="#ffffff"
     bordercolor="#666666"
     borderopacity="1"
     objecttolerance="10"
     gridtolerance="10"
     guidetolerance="10"
     inkscape:pageopacity="0"
     inkscape:pageshadow="2"
     inkscape:window-width="1366"
     inkscape:window-height="706"
     id="namedview23"
     showgrid="false"
     inkscape:zoom="20.85965"
     inkscape:cx="3.0791097"
     inkscape:cy="7.8278866"
     inkscape:window-x="0"
     inkscape:window-y="0"
     inkscape:window-maximized="1"
     inkscape:current-layer="svg3942" />
  <defs
     id="defs3944">
    <linearGradient
       gradientTransform="matrix(0.25378586,0,0,0.30501865,19.128979,-0.68547704)"
       gradientUnits="userSpaceOnUse"
       xlink:href="#linearGradient3104-9"
       id="linearGradient3092"
       y2="2.9062471"
       x2="-51.786404"
       y1="50.786446"
       x1="-51.786404" />
    <linearGradient
       id="linearGradient3104-9">
      <stop
         offset="0"
         style="stop-color:#000000;stop-opacity:0.33950618"
         id="stop3106-5" />
      <stop
         offset="1"
         style="stop-color:#000000;stop-opacity:0.24691358"
         id="stop3108-5" />
    </linearGradient>
    <linearGradient
       gradientTransform="matrix(0.24324324,0,0,0.35135133,2.1621636,-0.43242804)"
       gradientUnits="userSpaceOnUse"
       xlink:href="#linearGradient3977"
       id="linearGradient3095"
       y2="41.076912"
       x2="23.99999"
       y1="6.9230647"
       x1="23.99999" />
    <linearGradient
       id="linearGradient3977">
      <stop
         offset="0"
         style="stop-color:#ffffff;stop-opacity:1"
         id="stop3979" />
      <stop
         offset="0"
         style="stop-color:#ffffff;stop-opacity:0.23529412"
         id="stop3981" />
      <stop
         offset="1"
         style="stop-color:#ffffff;stop-opacity:0.15686275"
         id="stop3983" />
      <stop
         offset="1"
         style="stop-color:#ffffff;stop-opacity:0.39215687"
         id="stop3985" />
    </linearGradient>
    <linearGradient
       id="linearGradient3600">
      <stop
         offset="0"
         style="stop-color:#f4f4f4;stop-opacity:1"
         id="stop3602" />
      <stop
         offset="1"
         style="stop-color:#dbdbdb;stop-opacity:1"
         id="stop3604" />
    </linearGradient>
    <linearGradient
       gradientTransform="matrix(0.28571361,0,0,0.30419701,1.1428727,0.2326048)"
       gradientUnits="userSpaceOnUse"
       xlink:href="#linearGradient3600"
       id="linearGradient3940"
       y2="47.013336"
       x2="25.132275"
       y1="0.98520643"
       x1="25.132275" />
    <radialGradient
       id="a"
       cx="16.823883"
       cy="11.368058"
       fx="16.777113"
       fy="11.597148"
       gradientTransform="matrix(0,0.80952381,-1.1390522,0,20.948813,-5.369334)"
       gradientUnits="userSpaceOnUse"
       r="10.5">
      <stop
         offset="0"
         stop-color="#f2e0c4"
         id="stop2028" />
      <stop
         offset=".76470584"
         stop-color="#e5af5b"
         id="stop2030" />
      <stop
         offset="1"
         stop-color="#af6900"
         id="stop2032" />
    </radialGradient>
    <linearGradient
       id="b"
       gradientTransform="matrix(0.66666666,0,0,0.46666666,-12.166666,1.466666)"
       gradientUnits="userSpaceOnUse"
       x1="24"
       x2="24"
       xlink:href="#c"
       y1="29"
       y2="14" />
    <linearGradient
       id="c">
      <stop
         offset="0"
         stop-color="#d88f22"
         id="stop2036" />
      <stop
         offset="1"
         stop-color="#d88f22"
         stop-opacity="0"
         id="stop2038" />
    </linearGradient>
    <linearGradient
       id="d"
       gradientTransform="matrix(0.66666666,0,0,0.46666666,-3.166667,1.466666)"
       gradientUnits="userSpaceOnUse"
       x1="24"
       x2="24"
       xlink:href="#c"
       y1="29"
       y2="14" />
    <linearGradient
       id="e"
       gradientTransform="matrix(-0.93357745,0,0,1,23.379997,-20)"
       gradientUnits="userSpaceOnUse"
       x1="8.6428576"
       x2="23.299999"
       y1="27.5"
       y2="27.5">
      <stop
         offset="0"
         stop-color="#fff"
         id="stop2042" />
      <stop
         offset="1"
         stop-color="#fff"
         stop-opacity="0"
         id="stop2044" />
    </linearGradient>
  </defs>
  <metadata
     id="metadata3947">
    <rdf:RDF>
      <cc:Work
         rdf:about="">
        <dc:format>image/svg+xml</dc:format>
        <dc:type
           rdf:resource="http://purl.org/dc/dcmitype/StillImage" />
        <dc:title></dc:title>
      </cc:Work>
    </rdf:RDF>
  </metadata>
  <g
     id="g1960">
    <path
       style="display:inline;fill:url(#linearGradient3940);fill-opacity:1;stroke:none"
       id="path4160"
       d="m 3,1 c 2.2915074,0 9.999988,8.904e-4 9.999988,8.904e-4 L 13,15 C 13,15 6.3333332,15 3,15 3,10.333334 3,5.6666664 3,1 Z" />
    <path
       style="fill:none;stroke:url(#linearGradient3095);stroke-width:1;stroke-linecap:round;stroke-linejoin:miter;stroke-miterlimit:4;stroke-dasharray:none;stroke-dashoffset:0;stroke-opacity:1"
       id="rect6741-1"
       d="M 12.5,14.5 H 3.4999999 V 1.5 H 12.5 Z" />
    <path
       style="display:inline;fill:none;stroke:url(#linearGradient3092);stroke-width:0.99992192;stroke-linecap:butt;stroke-linejoin:round;stroke-miterlimit:4;stroke-dasharray:none;stroke-dashoffset:0;stroke-opacity:1"
       id="path4160-8"
       d="m 2.4999621,0.49997396 c 2.5206756,0 11.0000629,9.54e-4 11.0000629,9.54e-4 l 1.3e-5,14.99909804 c 0,0 -7.3333841,0 -11.000076,0 0,-5.000017 0,-10.000035 10e-8,-15.00005204 z" />
  </g>
  <g
     transform="matrix(0.53330255,0,0,0.53330255,8.533764,7.467159)"
     id="g2069">
    <path
       style="fill:none;stroke:#8c8c8c;stroke-linecap:square"
       inkscape:connector-curvature="0"
       d="M 4.4999998,6.4996391 V 5.1242817 c 0,-2.4782011 1.3702785,-3.6555186 3.4872865,-3.62457 2.1285247,0.030949 3.5133857,1.1172142 3.5133857,3.62457 V 6.4996391 H 10.06959 V 5.7540562 c 0,-0.6297745 0.148159,-2.6676754 -2.0673917,-2.6676754 -2.1972832,0 -2.0371829,2.0504603 -2.0286629,2.6651649 v 0.7480934 z"
       id="path2053" />
    <rect
       style="fill:url(#a)"
       height="8"
       rx="0.52380902"
       ry="0.533333"
       width="11"
       x="2.5"
       y="7.5"
       id="rect2055" />
    <rect
       style="fill:url(#b)"
       height="7"
       rx="1.6"
       ry="0.5"
       width="1"
       x="3"
       y="8"
       id="rect2057" />
    <rect
       style="fill:url(#d)"
       height="7"
       rx="1.6"
       ry="0.5"
       width="1"
       x="12"
       y="8"
       id="rect2059" />
    <g
       style="fill:none"
       id="g2067">
      <rect
         style="stroke:#de9d3c"
         height="8"
         rx="0.52381003"
         ry="0.533333"
         width="11"
         x="2.5"
         y="7.5"
         id="rect2061" />
      <path
         style="stroke:url(#e);stroke-linecap:square"
         inkscape:connector-curvature="0"
         d="m 3.5,9.5 9,-3.79e-4 M 3.5,11.5 l 9,-3.79e-4 M 3.5,13.5 l 9,-3.79e-4"
         id="path2063" />
      <path
         style="stroke:#ffffff;stroke-linecap:round"
         inkscape:connector-curvature="0"
         d="M 5.2,6 C 5.2,6 4.6101697,2.5 8,2.5 11.38983,2.5 10.8,6 10.8,6"
         id="path2065" />
    </g>
  </g>
</svg>
